images/decorative/education/girl.svg

<svg width="89" height="115" viewBox="0 0 89 115" fill="none" xmlns="http://www.w3.org/2000/svg">
<path d="M82.6737 102.035C81.3714 102.768 79.996 103.326 78.5661 103.753L78.4968 103.611C78.4152 103.499 78.3189 103.397 78.2341 103.288C78.9442 102.167 79.5865 100.999 80.5184 100.037C81.5518 98.9707 83.5004 97.6251 85.0614 98.3372C87.3714 99.3922 83.6056 101.511 82.6737 102.035ZM35.126 93.6456C39.6068 81.9821 43.572 68.8058 43.3992 56.2244C46.2405 56.4854 49.0471 56.3081 51.6163 55.5816C53.2239 55.1277 54.7515 54.4479 56.1822 53.5987L56.2322 53.7143C62.6395 65.1813 70.703 75.2098 80.0476 84.3812C69.111 97.8483 50.4992 101.694 35.126 93.6456ZM38.2148 53.0786C30.728 50.7768 24.4885 45.4252 22.6321 38.4635C36.6421 40.4926 52.504 35.3 60.3424 23.0919C64.1585 27.9811 65.9455 34.2084 64.0107 40.7636C60.6044 52.3031 49.0295 56.403 38.2148 53.0786ZM22.9789 28.5044C23.8613 25.7485 25.325 23.4798 27.179 21.6269C25.5417 25.9408 26.3727 31.3865 29.8464 34.473C30.5176 35.0699 31.4275 34.2416 30.8728 33.5251C27.521 29.1919 27.0048 24.2693 29.6856 19.5262C31.171 18.4821 32.8055 17.6232 34.5368 16.9363C35.3276 22.0705 37.566 27.7708 41.0755 31.4503C41.6152 32.0155 42.5947 31.3559 42.205 30.6479C40.8997 28.2714 39.3513 26.0847 38.2319 23.597C37.1901 21.2797 36.5074 18.8845 35.8776 16.4454C37.5274 15.8852 39.2445 15.4674 40.9807 15.1736C43.2197 16.1607 45.1179 17.3368 46.8299 19.2299C48.4222 20.9912 49.5011 23.0833 50.9107 24.9688C51.2628 25.4399 52.1548 24.9798 51.9445 24.4183C50.5576 20.7338 47.3807 16.5955 43.4989 14.8447C45.5513 14.6365 47.5995 14.5821 49.5656 14.6758C49.6898 14.9109 49.8892 15.1176 50.1836 15.2487C53.5701 16.7563 56.6593 18.9557 59.1168 21.645C50.974 34.8905 36.5407 36.71 22.383 37.3811C21.842 34.6238 21.9752 31.6388 22.9789 28.5044ZM24.161 21.8228C23.3648 22.8471 22.6953 23.9546 22.1258 25.1082C21.7893 24.8664 21.4786 24.5958 21.244 24.1881C20.7735 23.3714 20.619 22.3504 21.1009 21.5009C21.895 20.1014 23.8762 19.868 25.1409 20.6781C24.7955 21.0517 24.465 21.4323 24.161 21.8228ZM3.51143 28.2756C7.04188 27.0733 9.83516 24.4516 11.1168 20.7859C12.0731 18.0508 11.6776 15.2454 14.702 13.3913C16.0004 12.5951 17.7872 12.3606 19.2636 12.4982C23.1296 12.8574 25.6375 15.3872 27.4141 18.5866C26.9937 18.9243 26.5852 19.2683 26.2001 19.6262C26.1535 19.564 26.1084 19.5005 26.0374 19.4471C23.9531 17.9039 20.6483 18.6035 19.5637 21.0413C18.8395 22.6704 19.6108 25.5932 21.3217 26.49C16.2342 30.8745 9.38872 31.269 3.51143 28.2756ZM52.1083 13.4364C51.7042 13.2665 51.2964 13.1059 50.8829 12.9615C50.3648 12.7816 49.9612 12.9342 49.7075 13.2304C49.0147 13.028 48.2948 12.8859 47.5628 12.7718C47.7196 12.722 47.8576 12.6065 47.9232 12.3909C48.3105 11.1121 49.6949 9.79203 51.1416 10.4315C52.3243 10.9551 52.5596 12.3615 52.1083 13.4364ZM57.258 2.97248C58.2481 3.17404 59.1921 3.47384 60.1176 3.76877C61.7586 4.2902 63.3412 4.79461 65.02 4.70016C62.8143 8.87713 60.6086 14.0038 55.401 14.3051C55.0642 14.3247 54.8241 14.4973 54.6794 14.7256C54.3453 14.5326 54.0138 14.3344 53.6712 14.1585C54.6507 12.3049 53.7284 9.64177 51.7724 8.83978C49.5663 7.93559 46.5888 9.68836 46.7543 12.1998C46.7692 12.4212 46.8907 12.5895 47.0485 12.6926C46.588 12.6341 46.1203 12.5973 45.6496 12.5709C45.0211 5.9443 50.7975 1.659 57.258 2.97248ZM50.06 110.501C50.0384 110.759 50.0142 111.017 49.9934 111.276C49.901 111.27 49.8077 111.276 49.7137 111.311C48.2117 111.882 46.7223 112.446 45.1212 112.669C43.8083 112.851 40.8376 113.097 39.8141 112.087C38.9639 111.246 40.5575 110.949 41.2883 110.772C42.0985 110.575 42.9046 110.446 43.7336 110.37C45.6062 110.2 47.447 110.328 49.2896 110.693C49.6004 110.755 49.8608 110.662 50.06 110.501ZM17.658 53.8358C17.344 53.7741 17.0287 53.9477 16.8407 54.2125C15.456 53.9786 13.7924 53.9491 12.9755 52.6502C12.2871 51.5569 12.6374 49.8641 13.7421 49.1699C14.8434 48.4772 16.5162 48.8532 17.3177 49.8345C18.1724 50.8818 18.2375 52.6296 17.658 53.8358ZM78.9258 34.4321C78.8322 33.1641 79.6112 31.9409 80.9175 31.7746C82.2778 31.6025 83.7391 32.579 83.9758 33.9533C84.2018 35.2644 83.5016 36.5014 82.4359 37.1973C80.9557 36.7756 79.0591 36.248 78.9258 34.4321ZM87.2458 97.481C85.8192 95.9958 83.3948 96.248 81.6918 97.0507C79.6375 98.0195 78.1509 99.9435 77.0597 101.922C76.1487 100.946 75.1773 100.011 74.3151 99.0167C73.1664 97.6927 72.0985 96.2725 70.8922 94.9969C75.2554 92.5124 79.2036 89.1278 82.463 84.8925C82.7351 84.5377 82.6794 83.8512 82.3424 83.5476C74.9409 76.8886 68.5261 69.1649 63.0785 60.8267C72.6877 58.189 81.827 48.7854 83.3654 38.8546C85.2207 37.7495 86.3524 35.5045 85.8624 33.3481C85.3344 31.025 82.9129 29.4524 80.5776 29.7576C78.3218 30.0519 76.8031 32.1512 76.8927 34.3763C77 37.0447 79.2605 38.0573 81.5374 38.4388L81.5634 38.5273L81.5509 38.5458C79.5338 43.4713 77.6788 47.8523 73.9093 51.7535C70.5674 55.2111 66.5152 57.4821 62.1973 59.4568C60.7863 57.2374 59.4401 54.9796 58.1644 52.6859C58.1037 52.5757 58.0303 52.4898 57.952 52.4153C62.7376 48.8633 66.0801 43.264 66.7428 37.3707C67.6735 29.0943 63.3115 20.7409 56.5826 15.9383C62.4723 14.8213 64.6732 8.57544 67.6045 3.88063C68.1358 3.02909 67.2013 2.23942 66.3837 2.56029C64.3102 3.37488 62.1082 2.58424 59.947 1.80692C58.7368 1.37095 57.5392 0.93968 56.3846 0.795819C53.7334 0.466095 50.9291 0.896132 48.604 2.2578C45.0452 4.34115 42.9915 8.61771 44.1937 12.5415C38.7212 12.6032 32.8138 14.6481 28.3903 17.8402C27.1995 12.9411 21.4406 9.90507 16.6266 10.7878C13.7864 11.308 11.6142 12.953 10.5679 15.6442C9.6641 17.9701 9.64758 20.3941 8.23065 22.5494C6.51928 25.1521 3.91308 26.5624 0.9085 27.0598C0.117173 27.1907 0.00528517 28.3093 0.630048 28.7103C6.61956 32.5523 14.7929 33.2135 20.6461 29.1669C19.2226 34.8592 20.2032 41.146 23.7524 45.9167C27.7183 51.2486 34.8375 55.0314 41.9522 56.0632C41.5451 58.0918 41.1968 60.1281 40.8604 62.1672C36.6996 62.3205 32.7724 62.2632 28.7431 60.8814C24.7926 59.527 21.9734 57.1531 18.8359 54.6639C20.2362 52.819 20.4771 50.4258 19.0176 48.5088C17.582 46.6231 14.765 46.0344 12.6954 47.1982C10.7872 48.2707 9.95827 50.8081 10.8065 52.8151C11.7989 55.1627 14.704 55.8581 17.0371 55.464C21.5683 62.5243 32.4755 66.1341 40.5457 64.0818C39.9522 67.7223 39.3585 71.3635 38.5163 74.9674C37.013 81.4008 35.0145 87.6828 32.6442 93.8468C32.4776 94.2801 32.709 94.9029 33.1172 95.1271C38.9064 98.3113 45.1478 99.904 51.3239 100.005C50.7979 103.023 50.4555 106.067 50.1798 109.117C50.0855 109.045 49.9678 108.987 49.8204 108.957C47.5556 108.479 35.6052 107.32 37.354 112.434C38.0231 114.392 40.7126 114.775 42.4667 114.861C45.2627 114.999 48.1934 114.186 50.3302 112.351C50.9205 112.793 52.0387 112.547 52.118 111.562C52.4299 107.715 52.6848 103.859 52.6301 99.9991C58.4988 99.8957 64.27 98.439 69.5097 95.7347C70.3895 97.4171 71.6101 98.9569 72.8111 100.407C74.1574 102.031 75.5576 103.832 77.2792 105.069C77.6063 105.305 77.9189 105.29 78.1689 105.151C78.3187 105.26 78.5169 105.312 78.7579 105.261C81.1331 104.749 90.972 101.363 87.2458 97.481Z" fill="#FEB9CC"/>
<path d="M36.9167 44.0076C36.8363 42.5593 35.1754 41.5802 33.8575 42.2264C33.1929 42.552 32.7406 43.33 32.9588 44.0498C32.8848 44.2295 32.8201 44.4171 32.7667 44.6168C32.5809 45.31 32.9534 45.8499 33.5694 46.1282C35.0043 46.7769 37.0079 45.6615 36.9167 44.0076Z" fill="#FEB9CC"/>
<path d="M59.4038 34.1258C58.7557 32.9634 56.8378 32.2862 55.836 33.4216C55.7239 33.5485 55.643 33.6918 55.5813 33.84C55.3679 34.0885 55.2013 34.3804 55.1057 34.6975C54.6292 36.2703 56.0935 37.5348 57.5853 37.3669C59.1375 37.1918 60.2097 35.5713 59.4038 34.1258Z" fill="#FEB9CC"/>
<path d="M49.6208 44.7657C49.7267 44.3712 49.8184 44.0256 49.5419 43.6779C49.3877 43.4833 49.1865 43.3172 48.9716 43.1941C48.0436 42.6593 46.8475 42.9124 46.2816 43.8246C46.0233 44.2418 46.5085 44.8487 46.9625 44.5607C47.2913 44.3518 47.7403 44.3176 48.0904 44.4821C47.9002 45.1062 47.6904 45.7586 47.6767 46.3879C47.6619 47.0545 48.6314 47.4143 48.9775 46.7856C49.3157 46.1707 49.4395 45.4388 49.6208 44.7657Z" fill="#FEB9CC"/>
<path d="M51.6841 47.2214C50.7116 49.1483 48.4483 50.3463 46.4021 49.1567C45.9376 48.887 45.5524 49.5286 45.9619 49.8501C48.1847 51.5925 52.1419 50.6852 52.9409 47.8002C53.1423 47.0749 52.053 46.4907 51.6841 47.2214Z" fill="#FEB9CC"/>
</svg>

<svg width="89" height="115" fill="none" xmlns="http://www.w3.org/2000/svg"><path d="M82.674 102.035a19.993 19.993 0 0 1-4.108 1.718l-.07-.142c-.08-.112-.177-.214-.262-.323.71-1.121 1.353-2.289 2.284-3.251 1.034-1.066 2.982-2.412 4.543-1.7 2.31 1.055-1.455 3.174-2.387 3.698Zm-47.548-8.39c4.48-11.663 8.446-24.84 8.273-37.42 2.841.26 5.648.083 8.217-.643a19.155 19.155 0 0 0 4.566-1.983l.05.115C62.64 65.181 70.703 75.21 80.048 84.381c-10.937 13.467-29.549 17.313-44.922 9.265Zm3.089-40.566c-7.487-2.302-13.727-7.654-15.583-14.615 14.01 2.029 29.872-3.164 37.71-15.372 3.817 4.89 5.603 11.116 3.669 17.672-3.407 11.54-14.981 15.639-25.796 12.315ZM22.979 28.504a16.887 16.887 0 0 1 4.2-6.877c-1.637 4.314-.806 9.76 2.667 12.846.672.597 1.581-.231 1.027-.948-3.352-4.333-3.868-9.256-1.187-13.999 1.485-1.044 3.12-1.903 4.85-2.59.792 5.134 3.03 10.835 6.54 14.514.54.566 1.519-.094 1.129-.802-1.305-2.377-2.854-4.563-3.973-7.051-1.042-2.317-1.725-4.713-2.354-7.152 1.65-.56 3.367-.978 5.103-1.271 2.239.987 4.137 2.163 5.849 4.056 1.592 1.761 2.671 3.853 4.08 5.739.353.47 1.245.01 1.035-.55-1.387-3.685-4.564-7.823-8.446-9.574 2.052-.209 4.1-.263 6.067-.17.124.236.323.443.618.574 3.386 1.507 6.475 3.707 8.933 6.396C50.974 34.891 36.54 36.71 22.383 37.381c-.541-2.757-.408-5.742.596-8.877Zm1.182-6.681a19.138 19.138 0 0 0-2.035 3.285c-.337-.242-.647-.512-.882-.92-.47-.817-.625-1.838-.143-2.687.794-1.4 2.775-1.633 4.04-.823a17.84 17.84 0 0 0-.98 1.145Zm-20.65 6.453c3.53-1.203 6.324-3.824 7.606-7.49.956-2.735.56-5.54 3.585-7.395 1.298-.796 3.085-1.03 4.562-.893 3.866.36 6.373 2.89 8.15 6.089-.42.337-.829.681-1.214 1.04-.046-.063-.092-.127-.163-.18-2.084-1.543-5.389-.843-6.473 1.594-.724 1.63.047 4.552 1.758 5.449-5.088 4.385-11.933 4.779-17.81 1.786Zm48.597-14.84c-.404-.17-.812-.33-1.225-.475-.518-.18-.922-.027-1.175.27a16.976 16.976 0 0 0-2.145-.46.54.54 0 0 0 .36-.38c.387-1.279 1.772-2.599 3.219-1.96 1.182.524 1.418 1.93.966 3.005Zm5.15-10.464c.99.202 1.934.502 2.86.797 1.64.521 3.223 1.026 4.902.931-2.206 4.177-4.411 9.304-9.619 9.605a.889.889 0 0 0-.722.42c-.334-.192-.665-.39-1.008-.566.98-1.854.057-4.517-1.899-5.32-2.206-.903-5.183.85-5.018 3.36.015.222.137.39.294.494-.46-.059-.928-.096-1.398-.122-.629-6.627 5.148-10.912 11.608-9.599ZM50.06 110.501c-.022.258-.046.516-.067.775a.662.662 0 0 0-.28.035c-1.501.571-2.99 1.135-4.592 1.358-1.313.182-4.283.428-5.307-.582-.85-.841.743-1.138 1.474-1.315a16.74 16.74 0 0 1 2.446-.402c1.872-.17 3.713-.042 5.556.323a.907.907 0 0 0 .77-.192ZM17.658 53.836c-.314-.062-.63.112-.817.377-1.385-.234-3.049-.264-3.866-1.563-.688-1.093-.338-2.786.767-3.48 1.101-.693 2.774-.317 3.576.664.854 1.048.92 2.796.34 4.002Zm61.268-19.404c-.094-1.268.685-2.491 1.992-2.657 1.36-.172 2.821.804 3.058 2.178.226 1.311-.474 2.548-1.54 3.244-1.48-.421-3.377-.949-3.51-2.765Zm8.32 63.049c-1.427-1.485-3.851-1.233-5.554-.43-2.054.968-3.541 2.892-4.632 4.871-.911-.976-1.883-1.911-2.745-2.905-1.149-1.324-2.216-2.745-3.423-4.02 4.363-2.485 8.312-5.87 11.571-10.105.272-.354.216-1.04-.12-1.344-7.402-6.66-13.817-14.383-19.265-22.721 9.61-2.638 18.749-12.042 20.287-21.972 1.856-1.105 2.987-3.35 2.497-5.507-.528-2.323-2.95-3.896-5.284-3.59-2.256.294-3.775 2.393-3.685 4.618.107 2.669 2.367 3.681 4.644 4.063l.026.088-.012.019c-2.017 4.925-3.872 9.306-7.642 13.208-3.342 3.457-7.394 5.728-11.712 7.703a134.235 134.235 0 0 1-4.033-6.771 1.104 1.104 0 0 0-.212-.27c4.786-3.553 8.128-9.152 8.79-15.045.931-8.277-3.43-16.63-10.16-21.433 5.89-1.117 8.091-7.363 11.023-12.057.53-.852-.404-1.642-1.221-1.32-2.074.814-4.276.023-6.437-.754-1.21-.436-2.408-.867-3.562-1.011-2.652-.33-5.456.1-7.781 1.462-3.559 2.083-5.612 6.36-4.41 10.284-5.473.061-11.38 2.106-15.804 5.298-1.19-4.899-6.95-7.935-11.763-7.052-2.84.52-5.013 2.165-6.06 4.856-.903 2.326-.92 4.75-2.336 6.905-1.712 2.603-4.318 4.013-7.322 4.51-.792.132-.904 1.25-.279 1.651 5.99 3.842 14.163 4.504 20.016.457-1.423 5.692-.443 11.979 3.106 16.75 3.966 5.332 11.085 9.114 18.2 10.146a179.411 179.411 0 0 0-1.092 6.104c-4.16.154-8.088.096-12.117-1.286-3.95-1.354-6.77-3.728-9.907-6.217 1.4-1.845 1.641-4.238.182-6.155-1.436-1.886-4.253-2.475-6.323-1.31-1.908 1.072-2.737 3.61-1.889 5.616.993 2.348 3.898 3.043 6.231 2.649 4.531 7.06 15.438 10.67 23.509 8.618-.594 3.64-1.188 7.282-2.03 10.885-1.503 6.434-3.502 12.716-5.872 18.88-.166.433.065 1.056.473 1.28 5.79 3.184 12.03 4.777 18.207 4.878-.526 3.018-.868 6.062-1.144 9.112a.869.869 0 0 0-.36-.16c-2.264-.478-14.215-1.637-12.466 3.477.67 1.958 3.359 2.341 5.113 2.427 2.796.138 5.726-.675 7.863-2.51.59.442 1.709.196 1.788-.789.312-3.847.567-7.703.512-11.563a38.261 38.261 0 0 0 16.88-4.264c.88 1.682 2.1 3.222 3.301 4.672 1.346 1.624 2.747 3.425 4.468 4.662.327.236.64.221.89.082.15.109.348.161.589.11 2.375-.512 12.214-3.898 8.488-7.78Z" fill="#FEB9CC"/><path d="M36.917 44.008c-.08-1.449-1.742-2.428-3.06-1.782-.664.326-1.116 1.104-.898 1.824-.074.18-.139.367-.192.567-.186.693.186 1.233.802 1.511 1.435.649 3.439-.467 3.348-2.12ZM59.404 34.126c-.648-1.163-2.566-1.84-3.568-.704-.112.127-.193.27-.255.418-.213.248-.38.54-.475.857-.477 1.573.987 2.838 2.48 2.67 1.552-.175 2.624-1.796 1.818-3.241ZM49.62 44.766c.107-.395.198-.74-.078-1.088a2.005 2.005 0 0 0-.57-.484c-.928-.535-2.125-.282-2.69.63-.259.418.227 1.025.68.737a1.21 1.21 0 0 1 1.128-.079c-.19.624-.4 1.277-.413 1.906-.015.666.954 1.026 1.3.398.339-.615.463-1.347.644-2.02ZM51.684 47.221c-.972 1.927-3.236 3.125-5.282 1.936-.464-.27-.85.372-.44.693 2.223 1.742 6.18.835 6.979-2.05.201-.725-.888-1.31-1.257-.579Z" fill="#FEB9CC"/></svg>
